X:16
T:Hpps simple chords 2
M:3/4
L:1/8
K:D
(3fg^g [a2D,2F,2A,2] a2 | f2 f2 [dD,F,A,]>A | ^G>A B2 A2 | [g2E,2G,2B,2] g2 e2 | e2 [cA,CEG]>A ^G>A |
B2 A2 [a2D,2F,2A,2] | a2 f2 f2 | [dD,F,A,]>A ^G>A B2 | A2 [cA,CEG]>A c>e |
b>(3agfe [d2D,2F,2A,2] | f2 d2 (3fg^g | [a2D,2F,2A,2] a2 f2 | f2 [dD,F,A,]>A ^G>A |
B2 A2 [g2E,2G,2B,2] | g2 e2 e2 | [cA,CEG]>A ^G>A B2 | A2 [a2D,2F,2A,2] a2 |
f2 f2 [dD,F,A,]>A | ^G>A B2 A2 | [cA,CEG]>A c>e b>(3agf |e [d2D,2F,2A,2] f2 |
d2 e2 [fD,F,A,]>(3^efg |a d2 d2 | [eE,G,B,]>(3^defg B2 | B2 [cA,CEG]>B c>B |
A>c e>c [dD,F,A,]>c | d>f b2 a>g | [fD,F,A,]>(3^efga d2 | d2 [eE,G,B,]>(3^defg |
B2 B2 [cA,CEG]>B | c>B A>c e>c | [d2D,2F,2A,2] f2 d2 | e2 [fD,F,A,]>(3^efga |
d2 d2 [eE,G,B,]>(3^def |g B2 B2 | [cA,CEG]>B c>B A>c | e>c [dD,F,A,]>c d>f |
b2 a>g [fD,F,A,]>(3^efg |a d2 d2 | [eE,G,B,]>(3^defg B2 | B2 [cA,CEG]>B c>B |
A>c e>c [d2D,2F,2A,2] | f2 d2 |


